X:1
T:Two Turtles, The
R:jig
C:Henrik Norbeck
H:23/12 1988
M:6/8
K:A
EFE EFA|B2A Bce|fec BAB|cBA F2E|EFA ABc|e2c efe|cBA GAB|cAA A3:|
|:aff bff|aff baf|ecB ABA|Ace fef|aff bff|afe cBA|EFA BAB|cAA A3:|

